X:38
T:Three Hundred Years
M:6/8
L:1/8
K:D
%%MIDI channel 1
%%MIDI program 72
%%MIDI transpose 8
%%MIDI grace 1/8
%%MIDI ratio 3 1
A|B2c dcB|c2d edc|add dcd|ecB A2A|d2e fed|
e2f gfe|add dcd|edc d2::A|ABA AFA|dcB A2LF|
La2f Lg2e|LfLaLf Le2A|ABA AFA|dcB A2LF|La2d dcd|edc d2:|
%%%newpage
